assets/img/braze_icons/calendar.svg

<svg fill="none" height="24" viewBox="0 0 24 24" width="24" xmlns="http://www.w3.org/2000/svg"><path clip-rule="evenodd" d="m16 1c.5523 0 1 .44772 1 1v1.00163c.4755.00326.891.01309 1.2518.04256.5621.04593 1.0788.14449 1.5642.39178.7526.3835 1.3645.99542 1.748 1.74807.2473.48533.3459 1.00204.3918 1.56413.0442.54119.0442 1.20555.0442 2.01051v8.48262c0 .805 0 1.4693-.0442 2.0105-.0459.5621-.1445 1.0788-.3918 1.5642-.3835.7526-.9954 1.3645-1.748 1.748-.4854.2473-1.0021.3459-1.5642.3918-.5412.0442-1.2055.0442-2.0105.0442h-8.48262c-.80496 0-1.46931 0-2.0105-.0442-.5621-.0459-1.07881-.1445-1.56414-.3918-.75265-.3835-1.36457-.9954-1.74806-1.748-.2473-.4854-.34586-1.0021-.39179-1.5642-.04421-.5412-.0442-1.2055-.04419-2.0105v-8.4826c-.00001-.80496-.00002-1.46933.04419-2.01053.04593-.56209.14449-1.0788.39179-1.56413.38349-.75265.99541-1.36457 1.74806-1.74807.48533-.24729 1.00204-.34585 1.56414-.39178.3608-.02947.77636-.0393 1.25182-.04256v-1.00163c0-.55228.44772-1 1-1 .55229 0 1 .44772 1 1v1h6v-1c0-.55228.4477-1 1-1zm-9 4.00176v.99824c0 .55228.44772 1 1 1 .55229 0 1-.44772 1-1v-1h6v1c0 .55228.4477 1 1 1s1-.44772 1-1v-.99824c.4455.00313.7954.01181 1.089.03579.4384.03582.6626.10075.819.18044.3763.19174.6823.49771.874.87403.0797.1564.1446.3806.1804.81902.0368.45009.0376 1.03238.0376 1.88896v.2h-16v-.2c0-.85658.00078-1.43887.03755-1.88896.03582-.43842.10075-.66262.18044-.81902.19174-.37632.49771-.68229.87403-.87403.1564-.07969.3806-.14462.81902-.18044.29359-.02398.64343-.03266 1.08896-.03579z" fill="#801ed7" fill-rule="evenodd"/></svg>

<svg width="24" height="24" viewBox="0 0 24 24" fill="none" xmlns="http://www.w3.org/2000/svg">
<path fill-rule="evenodd" clip-rule="evenodd" d="M16 1C16.5523 1 17 1.44772 17 2V3.00163C17.4755 3.00489 17.891 3.01472 18.2518 3.04419C18.8139 3.09012 19.3306 3.18868 19.816 3.43597C20.5686 3.81947 21.1805 4.43139 21.564 5.18404C21.8113 5.66937 21.9099 6.18608 21.9558 6.74817C22 7.28936 22 7.95372 22 8.75868V17.2413C22 18.0463 22 18.7106 21.9558 19.2518C21.9099 19.8139 21.8113 20.3306 21.564 20.816C21.1805 21.5686 20.5686 22.1805 19.816 22.564C19.3306 22.8113 18.8139 22.9099 18.2518 22.9558C17.7106 23 17.0463 23 16.2413 23H7.75868C6.95372 23 6.28937 23 5.74818 22.9558C5.18608 22.9099 4.66937 22.8113 4.18404 22.564C3.43139 22.1805 2.81947 21.5686 2.43598 20.816C2.18868 20.3306 2.09012 19.8139 2.04419 19.2518C1.99998 18.7106 1.99999 18.0463 2 17.2413V8.7587C1.99999 7.95374 1.99998 7.28937 2.04419 6.74817C2.09012 6.18608 2.18868 5.66937 2.43598 5.18404C2.81947 4.43139 3.43139 3.81947 4.18404 3.43597C4.66937 3.18868 5.18608 3.09012 5.74818 3.04419C6.10898 3.01472 6.52454 3.00489 7 3.00163V2C7 1.44772 7.44772 1 8 1C8.55229 1 9 1.44772 9 2V3H15V2C15 1.44772 15.4477 1 16 1ZM7 5.00176V6C7 6.55228 7.44772 7 8 7C8.55229 7 9 6.55228 9 6V5H15V6C15 6.55228 15.4477 7 16 7C16.5523 7 17 6.55228 17 6V5.00176C17.4455 5.00489 17.7954 5.01357 18.089 5.03755C18.5274 5.07337 18.7516 5.1383 18.908 5.21799C19.2843 5.40973 19.5903 5.7157 19.782 6.09202C19.8617 6.24842 19.9266 6.47262 19.9624 6.91104C19.9992 7.36113 20 7.94342 20 8.8V9H4V8.8C4 7.94342 4.00078 7.36113 4.03755 6.91104C4.07337 6.47262 4.1383 6.24842 4.21799 6.09202C4.40973 5.7157 4.7157 5.40973 5.09202 5.21799C5.24842 5.1383 5.47262 5.07337 5.91104 5.03755C6.20463 5.01357 6.55447 5.00489 7 5.00176Z" fill="#801ED7"/>
</svg>
